X: 22
M:6/8
L:1/8
K:G
d|gfg efg|dec BAG|gfg efg|dBG A3|
gfg efg|dec BAG|AFA BGB|cAF G2:|
|:A|DED cAA|Bdg dBG|DED cAA|dBG A3|

